img/repit.svg

<svg width="19" height="16" viewBox="0 0 19 16" fill="none" xmlns="http://www.w3.org/2000/svg">
<path d="M4.29443 4.77615L3.21828 5.8523C4.27769 2.3809 7.95064 0.425637 11.422 1.48504C12.745 1.88879 13.9068 2.69967 14.742 3.8022L15.6944 3.08058C13.1077 -0.339101 8.23855 -1.01442 4.81883 1.5723C3.40141 2.64441 2.39477 4.17037 1.96696 5.89535L0.845374 4.77615L0 5.62093L2.5708 8.19173L5.1416 5.62093L4.29443 4.77615Z" fill="white"/>
<path d="M16.4288 7.34155L13.8581 9.91235L14.7034 10.7577L15.7921 9.66962C14.742 13.1466 11.0721 15.114 7.59517 14.0639C6.2122 13.6462 5.00527 12.7848 4.16076 11.6127L3.19043 12.311C4.38963 13.9875 6.20914 15.1152 8.24414 15.4432C8.66122 15.5109 9.08309 15.5451 9.50563 15.5454C13.0748 15.5437 16.1818 13.106 17.0327 9.63973L18.1519 10.7577L18.9996 9.91235L16.4288 7.34155ZM16.399 9.06399L16.4294 9.0335L16.4737 9.07834L16.399 9.06399Z" fill="white"/>
</svg>

<svg width="19" height="16" fill="none" xmlns="http://www.w3.org/2000/svg"><path d="M4.294 4.776 3.218 5.852a6.572 6.572 0 0 1 11.524-2.05l.952-.721A7.764 7.764 0 0 0 1.967 5.895L.845 4.776 0 5.621l2.57 2.57 2.572-2.57-.848-.845ZM16.429 7.342l-2.57 2.57.844.846 1.09-1.088A6.576 6.576 0 0 1 4.16 11.613l-.97.698a7.725 7.725 0 0 0 5.053 3.132 7.754 7.754 0 0 0 8.789-5.803l1.119 1.118.848-.846-2.571-2.57Zm-.03 1.722.03-.03.045.044-.075-.014Z" fill="#fff"/></svg>
